X: 28
T: Strop the Razor
C: J-10
M: 6/8
Z: Transcribed to abc by Mary Lou Knack
R: jig
K: G
"G"DGG BGG| "D"AFD DFD| "G"DGG BGG| "D"Add cAG|
"G"DGG BGG| "D"AFD DFD| FED FGA| cAd cAG :|
|:\
"G"DGG G2A| "D"DFF F2A| "G"DGG GAB| "D"ded cAG|
"G"DGG G2A| "D"DFF F2d| cAG FGA| cAd cAG :|
%%text 9/1/98
